static/fa/svgs/solid/toggle-off.svg

<svg xmlns="http://www.w3.org/2000/svg" viewBox="0 0 576 512"><!--! Font Awesome Free 6.1.1 by @fontawesome - https://fontawesome.com License - https://fontawesome.com/license/free (Icons: CC BY 4.0, Fonts: SIL OFL 1.1, Code: MIT License) Copyright 2022 Fonticons, Inc.--><path d="M192 352c-53.9 0-96-43-96-96 0-53.9 42.1-96 96-96 53 0 96 42.1 96 96 0 53-43 96-96 96zm192 96H192C85.96 448 0 362 0 256 0 149.1 85.96 64 192 64h192c106 0 192 85.1 192 192 0 106-86 192-192 192zm0-320H192c-70.7 0-128 57.3-128 128s57.3 128 128 128h192c70.7 0 128-57.3 128-128s-57.3-128-128-128z"/></svg>

<svg xmlns="http://www.w3.org/2000/svg" viewBox="0 0 576 512"><!--! Font Awesome Free 6.1.1 by @fontawesome - https://fontawesome.com License - https://fontawesome.com/license/free (Icons: CC BY 4.0, Fonts: SIL OFL 1.1, Code: MIT License) Copyright 2022 Fonticons, Inc. --><path d="M192 352C138.1 352 96 309 96 256C96 202.1 138.1 160 192 160C245 160 288 202.1 288 256C288 309 245 352 192 352zM384 448H192C85.96 448 0 362 0 256C0 149.1 85.96 64 192 64H384C490 64 576 149.1 576 256C576 362 490 448 384 448zM384 128H192C121.3 128 64 185.3 64 256C64 326.7 121.3 384 192 384H384C454.7 384 512 326.7 512 256C512 185.3 454.7 128 384 128z"/></svg>
